modules/feathericon/icons/kitchen-cooker.svg

<?xml version="1.0" encoding="UTF-8"?>
<svg width="14px" height="11px" viewBox="0 0 14 11" version="1.1" xmlns="http://www.w3.org/2000/svg" xmlns:xlink="http://www.w3.org/1999/xlink">
    <!-- Generator: sketchtool 48.1 (47250) - http://www.bohemiancoding.com/sketch -->
    <title>kitchen-cooker</title>
    <desc>Created with sketchtool.</desc>
    <defs></defs>
    <g id="food" stroke="none" stroke-width="1" fill="none" fill-rule="evenodd">
        <g id="kitchen-cooker" fill="#000000">
            <path d="M11,10 L3,10 C3,10.5522847 2.55228475,11 2,11 C1.44771525,11 1,10.5522847 1,10 C0.447085215,9.996256 0,9.54211907 0,9.00460243 L0,0.995397568 C0,0.445654671 0.449948758,0 1.00684547,0 L12.9931545,0 C13.5492199,0 14,0.455664396 14,0.995397568 L14,9.00460243 C14,9.55209282 13.5537309,9.99634621 12.9999946,9.99997758 C13,10.5522847 12.5522847,11 12,11 C11.4477153,11 11,10.5522847 11,10 Z M1,9.00460243 C1,8.99449513 12.9931545,9 12.9931545,9 C12.9998968,9 13,0.995397568 13,0.995397568 C13,1.00550487 1.00684547,1 1.00684547,1 C1.00010318,1 1,9.00460243 1,9.00460243 Z M2,4 L12,4 L12,8 L2,8 L2,4 Z M6,5 L8,5 L8,6 L6,6 L6,5 Z M9.5,3 C9.77614237,3 10,2.77614237 10,2.5 C10,2.22385763 9.77614237,2 9.5,2 C9.22385763,2 9,2.22385763 9,2.5 C9,2.77614237 9.22385763,3 9.5,3 Z M7.5,3 C7.77614237,3 8,2.77614237 8,2.5 C8,2.22385763 7.77614237,2 7.5,2 C7.22385763,2 7,2.22385763 7,2.5 C7,2.77614237 7.22385763,3 7.5,3 Z M11.5,3 C11.7761424,3 12,2.77614237 12,2.5 C12,2.22385763 11.7761424,2 11.5,2 C11.2238576,2 11,2.22385763 11,2.5 C11,2.77614237 11.2238576,3 11.5,3 Z M2,2 L5,2 L5,3 L2,3 L2,2 Z" id="Shape"></path>
        </g>
    </g>
</svg>

<svg width="14" height="11" viewBox="0 0 14 11" xmlns="http://www.w3.org/2000/svg"><path d="M11 10H3a1 1 0 0 1-2 0c-.553-.004-1-.458-1-.995V.995A1 1 0 0 1 1.007 0h11.986C13.55 0 14 .456 14 .995v8.01A1 1 0 0 1 13 10a1 1 0 1 1-2 0zM1 9.005C1 8.995 12.993 9 12.993 9 13 9 13 .995 13 .995 13 1.005 1.007 1 1.007 1 1 1 1 9.005 1 9.005zM2 4h10v4H2V4zm4 1h2v1H6V5zm3.5-2a.5.5 0 1 0 0-1 .5.5 0 0 0 0 1zm-2 0a.5.5 0 1 0 0-1 .5.5 0 0 0 0 1zm4 0a.5.5 0 1 0 0-1 .5.5 0 0 0 0 1zM2 2h3v1H2V2z" fill="#000" fill-rule="evenodd"/></svg>
